; generated by PrusaSlicer 2.3.1+x64 on 2021-05-15 at 10:08:38 UTC

; 

; external perimeters extrusion width = 0.60mm
; perimeters extrusion width = 0.50mm
; infill extrusion width = 0.50mm
; solid infill extrusion width = 0.50mm
; top infill extrusion width = 0.45mm
; support material extrusion width = 0.38mm
; first layer extrusion width = 0.42mm

M73 P0 R222
M73 Q0 S225
M201 X1000 Y1000 Z200 E5000 ; sets maximum accelerations, mm/sec^2
M203 X200 Y200 Z12 E120 ; sets maximum feedrates, mm/sec
M204 P1250 R1250 T1250 ; sets acceleration (P, T) and retract acceleration (R), mm/sec^2
M205 X8.00 Y8.00 Z0.40 E4.50 ; sets the jerk limits, mm/sec
M205 S0 T0 ; sets the minimum extruding and travel feed rate, mm/sec
M107
;TYPE:Custom
M862.3 P "MK3S" ; printer model check
M862.1 P0.4 ; nozzle diameter check
M115 U3.9.3 ; tell printer latest fw version
G90 ; use absolute coordinates
M83 ; extruder relative mode
M104 S260 ; set extruder temp
M140 S105 ; set bed temp
M190 S105 ; wait for bed temp
M109 S260 ; wait for extruder temp
G28 W ; home all without mesh bed level
G80 ; mesh bed leveling
G1 Y-3.0 F1000.0 ; go outside print area
G92 E0.0
G1 X60.0 E9.0 F1000.0 ; intro line
G1 X100.0 E12.5 F1000.0 ; intro line
G92 E0.0
M221 S95

; Don't change E values below. Excessive value can damage the printer.

M907 E538 ; set extruder motor current
G21 ; set units to millimeters
G90 ; use absolute coordinates
M83 ; use relative distances for extrusion
M900 K0.04 ; Filament gcode LA 1.5
M900 K20 ; Filament gcode LA 1.0
;LAYER_CHANGE
;Z:0.2
;HEIGHT:0.2
;BEFORE_LAYER_CHANGE
G92 E0.0
;0.2


G1 E-0.80000 F2100.000
G1 Z0.600 F10800.000
;AFTER_LAYER_CHANGE
;0.2
G1 X86.307 Y61.062
G1 Z0.200
G1 E0.80000 F2100.000
M204 S1000
;TYPE:Skirt
;WIDTH:0.42
G1 F1200.000
G1 X86.949 Y60.184 E0.03410
G1 X88.311 Y58.638 E0.06460
G1 X89.173 Y57.828 E0.03709
G1 X90.775 Y56.576 E0.06377
G1 X92.511 Y55.523 E0.06365
G1 X93.574 Y55.005 E0.03709
G1 X95.477 Y54.287 E0.06377
G1 X97.447 Y53.798 E0.06365
G1 X98.609 Y53.620 E0.03685
G1 X100.639 Y53.500 E0.06377
G1 X155.650 Y53.500 E1.72483
G1 X157.669 Y53.619 E0.06343
G1 X158.779 Y53.785 E0.03518
G1 X159.874 Y54.023 E0.03514
G1 X161.805 Y54.628 E0.06344
G1 X162.843 Y55.061 E0.03526
G1 X164.633 Y56.004 E0.06344
G1 X165.574 Y56.616 E0.03518
G1 X167.118 Y57.826 E0.06150
G1 X167.977 Y58.634 E0.03697
G1 X169.280 Y60.105 E0.06162
G1 X170.552 Y61.947 E0.07020
G1 X171.464 Y63.684 E0.06150
G1 X171.897 Y64.723 E0.03530
G1 X172.501 Y66.653 E0.06341
G1 X172.746 Y67.787 E0.03637
G1 X172.986 Y69.760 E0.06233
G1 X173.023 Y70.866 E0.03470
G1 X172.993 Y126.900 E1.75691
G1 X172.725 Y129.077 E0.06877
G1 X172.256 Y130.982 E0.06150
G1 X171.895 Y132.036 E0.03494
G1 X171.000 Y134.013 E0.06806
G1 X169.985 Y135.692 E0.06150
G1 X169.343 Y136.570 E0.03410
G1 X167.981 Y138.116 E0.06460
G1 X167.117 Y138.929 E0.03721
G1 X165.514 Y140.181 E0.06377
G1 X163.721 Y141.264 E0.06567
G1 X161.811 Y142.124 E0.06567
G1 X159.871 Y142.732 E0.06377
G1 X158.710 Y142.981 E0.03721
M73 Q0 S224
G1 X156.642 Y143.225 E0.06531
G1 X99.612 Y143.223 E1.78813
G1 X97.443 Y142.956 E0.06850
G1 X95.542 Y142.487 E0.06142
G1 X94.487 Y142.126 E0.03494
G1 X92.510 Y141.231 E0.06806
G1 X90.831 Y140.216 E0.06150
G1 X89.953 Y139.574 E0.03410
G1 X88.407 Y138.212 E0.06460
G1 X87.594 Y137.348 E0.03721
G1 X86.343 Y135.745 E0.06377
G1 X85.259 Y133.952 E0.06567
G1 X84.399 Y132.042 E0.06567
G1 X83.791 Y130.102 E0.06377
G1 X83.542 Y128.941 E0.03721
G1 X83.298 Y126.873 E0.06531
G1 X83.300 Y69.843 E1.78813
G1 X83.568 Y67.674 E0.06850
G1 X84.037 Y65.773 E0.06142
G1 X84.397 Y64.718 E0.03494
G1 X85.293 Y62.741 E0.06806
G1 X86.276 Y61.114 E0.05962
; printing object Motor Holder.stl id:0 copy 0
;WIPE_START
G1 F8640.000
G1 X86.949 Y60.184 E-0.26496
G1 X88.311 Y58.638 E-0.47574
G1 X88.372 Y58.581 E-0.01930
;WIPE_END
G1 E-0.04000 F2100.000
G1 Z0.800 F10800.000
G1 X102.505 Y92.254
G1 Z0.200
G1 E0.80000 F2100.000
;TYPE:Support material
G1 F1200.000
G1 X102.505 Y85.759 E0.20362
G1 X103.259 Y85.160 E0.03021
G1 X103.259 Y92.084 E0.21710
G1 X104.013 Y92.084 E0.02365
G1 X104.013 Y84.628 E0.23377
G1 X104.767 Y84.157 E0.02789
G1 X104.767 Y92.084 E0.24855
G1 X105.521 Y92.084 E0.02365
G1 X105.521 Y83.739 E0.26164
G1 X106.276 Y83.371 E0.02632
G1 X106.276 Y92.084 E0.27320
G1 X107.030 Y92.084 E0.02365
G1 X107.030 Y83.047 E0.28334
G1 X107.784 Y82.765 E0.02524
G1 X107.784 Y92.084 E0.29217
G1 X108.538 Y92.084 E0.02365
G1 X108.538 Y82.523 E0.29977
G1 X109.292 Y82.325 E0.02445
G1 X109.292 Y92.084 E0.30599
G1 X110.046 Y92.084 E0.02365
G1 X110.046 Y82.165 E0.31099
G1 X110.801 Y82.040 E0.02397
G1 X110.801 Y92.084 E0.31492
G1 X111.555 Y92.084 E0.02365
G1 X111.555 Y81.948 E0.31779
G1 X112.309 Y81.890 E0.02372
G1 X112.309 Y92.084 E0.31963
G1 X113.063 Y92.084 E0.02365
G1 X113.063 Y81.868 E0.32031
G1 X113.817 Y81.866 E0.02365
G1 X113.817 Y92.084 E0.32038
G1 X114.571 Y92.084 E0.02365
G1 X114.571 Y81.866 E0.32038
G1 X115.325 Y81.866 E0.02365
G1 X115.325 Y92.084 E0.32038
G1 X116.080 Y92.084 E0.02365
G1 X116.080 Y81.866 E0.32038
G1 X116.834 Y81.866 E0.02365
G1 X116.834 Y92.084 E0.32038
G1 X117.588 Y92.084 E0.02365
G1 X117.588 Y81.866 E0.32038
G1 X118.342 Y81.866 E0.02365
G1 X118.342 Y92.084 E0.32038
G1 X119.096 Y92.084 E0.02365
G1 X119.096 Y81.866 E0.32038
G1 X119.850 Y81.866 E0.02365
G1 X119.850 Y92.084 E0.32038
G1 X120.605 Y92.084 E0.02365
G1 X120.605 Y81.866 E0.32038
G1 X121.359 Y81.866 E0.02365
G1 X121.359 Y92.084 E0.32038
G1 X121.853 Y92.084 E0.01549
G1 X121.853 Y89.768 E0.07260
G1 X122.113 Y89.768 E0.00815
G1 X122.113 Y81.866 E0.24778
G1 X122.867 Y81.866 E0.02365
G1 X122.867 Y89.768 E0.24778
G1 X123.621 Y89.768 E0.02365
G1 X123.621 Y81.866 E0.24778
G1 X124.375 Y81.866 E0.02365
G1 X124.375 Y89.768 E0.24778
G1 X125.130 Y89.768 E0.02365
G1 X125.130 Y81.866 E0.24778
G1 X125.884 Y81.866 E0.02365
G1 X125.884 Y89.938 E0.25310
;WIPE_START
G1 F8640.000
G1 X125.884 Y86.646 E-0.76000
;WIPE_END
G1 E-0.04000 F2100.000
G1 Z0.800 F10800.000
G1 X128.146 Y71.201
G1 Z0.200
G1 E0.80000 F2100.000
G1 F1200.000
G1 X128.146 Y75.383 E0.13113
G1 X128.511 Y75.354 E0.01149
G1 X128.900 Y75.235 E0.01276
G1 X128.900 Y71.519 E0.11650
G1 X129.065 Y71.589 E0.00562
G1 X129.316 Y71.742 E0.00920
G1 X129.541 Y71.930 E0.00920
G1 X129.655 Y72.056 E0.00532
G1 X129.655 Y74.951 E0.09076
;WIPE_START
G1 F8640.000
G1 X129.655 Y72.056 E-0.66837
G1 X129.541 Y71.930 E-0.03914
G1 X129.367 Y71.785 E-0.05249
;WIPE_END
G1 E-0.04000 F2100.000
G1 Z0.800 F10800.000
G1 X128.146 Y81.696
G1 Z0.200
G1 E0.80000 F2100.000
G1 F1200.000
G1 X128.146 Y87.453 E0.18049
G1 X128.900 Y87.453 E0.02365
G1 X128.900 Y81.866 E0.17517
G1 X129.655 Y81.866 E0.02365
G1 X129.655 Y87.453 E0.17517
G1 X129.808 Y87.453 E0.00482
G1 X129.808 Y89.768 E0.07260
G1 X130.409 Y89.768 E0.01883
G1 X130.409 Y81.866 E0.24778
G1 X131.163 Y81.866 E0.02365
G1 X131.163 Y89.768 E0.24778
G1 X131.917 Y89.768 E0.02365
G1 X131.917 Y81.866 E0.24778
G1 X132.671 Y81.866 E0.02365
G1 X132.671 Y89.768 E0.24778
G1 X133.425 Y89.768 E0.02365
G1 X133.425 Y81.866 E0.24778
G1 X134.179 Y81.866 E0.02365
G1 X134.179 Y89.768 E0.24778
G1 X134.439 Y89.768 E0.00815
G1 X134.439 Y92.084 E0.07260
G1 X134.934 Y92.084 E0.01549
G1 X134.934 Y81.866 E0.32038
G1 X135.688 Y81.866 E0.02365
G1 X135.688 Y92.084 E0.32038
G1 X136.442 Y92.084 E0.02365
G1 X136.442 Y81.866 E0.32038
G1 X137.196 Y81.866 E0.02365
G1 X137.196 Y92.084 E0.32038
G1 X137.950 Y92.084 E0.02365
G1 X137.950 Y81.866 E0.32038
G1 X138.704 Y81.866 E0.02365
G1 X138.704 Y92.084 E0.32038
G1 X139.459 Y92.084 E0.02365
G1 X139.459 Y81.866 E0.32038
G1 X140.213 Y81.866 E0.02365
G1 X140.213 Y92.084 E0.32038
G1 X140.967 Y92.084 E0.02365
G1 X140.967 Y81.866 E0.32038
G1 X141.721 Y81.866 E0.02365
G1 X141.721 Y92.084 E0.32038
G1 X142.475 Y92.084 E0.02365
G1 X142.475 Y81.866 E0.32038
G1 X143.141 Y81.866 E0.02088
G1 X143.229 Y81.868 E0.00277
G1 X143.229 Y92.084 E0.32031
G1 X143.984 Y92.084 E0.02365
G1 X143.984 Y81.890 E0.31963
G1 X144.738 Y81.948 E0.02372
G1 X144.738 Y92.084 E0.31779
G1 X145.492 Y92.084 E0.02365
G1 X145.492 Y82.040 E0.31492
G1 X146.246 Y82.165 E0.02397
G1 X146.246 Y92.084 E0.31099
G1 X147.000 Y92.084 E0.02365
G1 X147.000 Y82.325 E0.30599
M73 P0 R221
G1 X147.754 Y82.523 E0.02445
G1 X147.754 Y92.084 E0.29977
G1 X148.508 Y92.084 E0.02365
G1 X148.508 Y82.765 E0.29217
G1 X149.263 Y83.047 E0.02524
G1 X149.263 Y92.084 E0.28334
G1 X150.017 Y92.084 E0.02365
G1 X150.017 Y83.371 E0.27320
G1 X150.771 Y83.739 E0.02632
G1 X150.771 Y92.084 E0.26164
G1 X151.525 Y92.084 E0.02365
G1 X151.525 Y84.157 E0.24855
G1 X152.279 Y84.628 E0.02789
G1 X152.279 Y92.084 E0.23377
G1 X153.033 Y92.084 E0.02365
G1 X153.033 Y85.160 E0.21710
G1 X153.788 Y85.759 E0.03021
G1 X153.788 Y92.254 E0.20362
;WIPE_START
G1 F8640.000
G1 X153.788 Y88.962 E-0.76000
;WIPE_END
G1 E-0.04000 F2100.000
G1 Z0.800 F10800.000
G1 X153.788 Y111.219
G1 Z0.200
G1 E0.80000 F2100.000
G1 F1200.000
G1 X153.788 Y102.355 E0.27795
G1 X153.033 Y102.355 E0.02365
G1 X153.033 Y111.595 E0.28971
G1 X152.279 Y112.126 E0.02893
G1 X152.279 Y102.355 E0.30637
G1 X151.525 Y102.355 E0.02365
G1 X151.525 Y112.598 E0.32116
G1 X150.771 Y113.015 E0.02703
G1 X150.771 Y102.355 E0.33425
G1 X150.017 Y102.355 E0.02365
G1 X150.017 Y113.384 E0.34580
G1 X149.263 Y113.707 E0.02573
G1 X149.263 Y102.355 E0.35594
G1 X148.508 Y102.355 E0.02365
G1 X148.508 Y113.989 E0.36478
G1 X147.795 Y114.221 E0.02353
G1 X147.754 Y114.231 E0.00131
G1 X147.754 Y102.355 E0.37238
G1 X147.000 Y102.355 E0.02365
G1 X147.000 Y114.429 E0.37859
G1 X146.246 Y114.589 E0.02417
G1 X146.246 Y102.355 E0.38360
G1 X145.492 Y102.355 E0.02365
G1 X145.492 Y114.714 E0.38752
G1 X144.738 Y114.806 E0.02382
G1 X144.738 Y102.355 E0.39040
G1 X143.984 Y102.355 E0.02365
G1 X143.984 Y114.865 E0.39224
G1 X143.229 Y114.886 E0.02366
G1 X143.229 Y102.355 E0.39291
G1 X142.475 Y102.355 E0.02365
G1 X142.475 Y114.889 E0.39299
G1 X141.721 Y114.889 E0.02365
G1 X141.721 Y102.355 E0.39299
G1 X140.967 Y102.355 E0.02365
G1 X140.967 Y114.889 E0.39299
G1 X140.213 Y114.889 E0.02365
G1 X140.213 Y102.355 E0.39299
G1 X139.459 Y102.355 E0.02365
G1 X139.459 Y114.889 E0.39299
G1 X138.704 Y114.889 E0.02365
G1 X138.704 Y102.355 E0.39299
G1 X137.950 Y102.355 E0.02365
G1 X137.950 Y114.889 E0.39299
G1 X137.196 Y114.889 E0.02365
G1 X137.196 Y102.355 E0.39299
G1 X136.755 Y102.355 E0.01383
G1 X136.755 Y104.670 E0.07260
G1 X136.442 Y104.670 E0.00982
G1 X136.442 Y114.889 E0.32038
M73 Q0 S223
G1 X135.688 Y114.889 E0.02365
G1 X135.688 Y104.670 E0.32038
G1 X134.934 Y104.670 E0.02365
G1 X134.934 Y114.889 E0.32038
G1 X134.179 Y114.889 E0.02365
G1 X134.179 Y106.986 E0.24778
G1 X133.425 Y106.986 E0.02365
G1 X133.425 Y114.889 E0.24778
G1 X132.671 Y114.889 E0.02365
G1 X132.671 Y106.986 E0.24778
G1 X131.917 Y106.986 E0.02365
G1 X131.917 Y114.889 E0.24778
G1 X131.163 Y114.889 E0.02365
G1 X131.163 Y106.986 E0.24778
G1 X130.409 Y106.986 E0.02365
G1 X130.409 Y114.889 E0.24778
G1 X129.655 Y114.889 E0.02365
G1 X129.655 Y109.302 E0.17518
G1 X128.900 Y109.302 E0.02365
G1 X128.900 Y114.889 E0.17518
G1 X128.146 Y114.889 E0.02365
G1 X128.146 Y109.132 E0.18050
;WIPE_START
G1 F8640.000
G1 X128.146 Y112.423 E-0.76000
;WIPE_END
G1 E-0.04000 F2100.000
G1 Z0.800 F10800.000
G1 X125.884 Y115.058
G1 Z0.200
G1 E0.80000 F2100.000
G1 F1200.000
G1 X125.884 Y106.986 E0.25310
G1 X125.130 Y106.986 E0.02365
G1 X125.130 Y114.889 E0.24778
G1 X124.375 Y114.889 E0.02365
G1 X124.375 Y106.986 E0.24778
G1 X123.621 Y106.986 E0.02365
G1 X123.621 Y114.889 E0.24778
G1 X122.867 Y114.889 E0.02365
G1 X122.867 Y106.986 E0.24778
G1 X122.113 Y106.986 E0.02365
G1 X122.113 Y114.889 E0.24778
G1 X121.359 Y114.889 E0.02365
G1 X121.359 Y104.670 E0.32038
G1 X120.605 Y104.670 E0.02365
G1 X120.605 Y114.889 E0.32038
G1 X119.850 Y114.889 E0.02365
G1 X119.850 Y104.670 E0.32038
G1 X119.537 Y104.670 E0.00982
G1 X119.537 Y102.355 E0.07260
G1 X119.096 Y102.355 E0.01383
G1 X119.096 Y114.889 E0.39299
G1 X118.342 Y114.889 E0.02365
G1 X118.342 Y102.355 E0.39299
G1 X117.588 Y102.355 E0.02365
G1 X117.588 Y114.889 E0.39299
G1 X116.834 Y114.889 E0.02365
G1 X116.834 Y102.355 E0.39299
G1 X116.080 Y102.355 E0.02365
G1 X116.080 Y114.889 E0.39299
G1 X115.325 Y114.889 E0.02365
G1 X115.325 Y102.355 E0.39299
G1 X114.571 Y102.355 E0.02365
G1 X114.571 Y114.889 E0.39299
G1 X113.817 Y114.889 E0.02365
G1 X113.817 Y102.355 E0.39299
G1 X113.063 Y102.355 E0.02365
G1 X113.063 Y114.886 E0.39291
G1 X112.309 Y114.865 E0.02366
G1 X112.309 Y102.355 E0.39224
G1 X111.555 Y102.355 E0.02365
G1 X111.555 Y114.806 E0.39040
G1 X110.801 Y114.714 E0.02382
G1 X110.801 Y102.355 E0.38752
G1 X110.046 Y102.355 E0.02365
G1 X110.046 Y114.589 E0.38360
G1 X109.292 Y114.429 E0.02417
G1 X109.292 Y102.355 E0.37859
G1 X108.538 Y102.355 E0.02365
G1 X108.538 Y114.231 E0.37238
G1 X107.784 Y113.989 E0.02484
G1 X107.784 Y102.355 E0.36478
G1 X107.030 Y102.355 E0.02365
G1 X107.030 Y113.707 E0.35594
G1 X106.276 Y113.384 E0.02573
G1 X106.276 Y102.355 E0.34580
G1 X105.521 Y102.355 E0.02365
G1 X105.521 Y113.015 E0.33425
G1 X104.767 Y112.598 E0.02703
G1 X104.767 Y102.355 E0.32116
G1 X104.013 Y102.355 E0.02365
G1 X104.013 Y112.126 E0.30637
G1 X103.259 Y111.595 E0.02893
G1 X103.259 Y102.355 E0.28971
G1 X102.505 Y102.355 E0.02365
G1 X102.505 Y111.219 E0.27795
;WIPE_START
G1 F8640.000
G1 X102.505 Y107.928 E-0.76000
;WIPE_END
G1 E-0.04000 F2100.000
G1 Z0.800 F10800.000
G1 X128.146 Y121.201
G1 Z0.200
G1 E0.80000 F2100.000
G1 F1200.000
G1 X128.146 Y125.383 E0.13113
G1 X128.511 Y125.354 E0.01149
G1 X128.900 Y125.235 E0.01276
G1 X128.900 Y121.519 E0.11650
G1 X129.065 Y121.589 E0.00562
G1 X129.316 Y121.742 E0.00920
G1 X129.541 Y121.930 E0.00920
G1 X129.655 Y122.056 E0.00531
G1 X129.655 Y124.951 E0.09076
;WIPE_START
G1 F8640.000
G1 X129.655 Y122.056 E-0.66837
G1 X129.541 Y121.930 E-0.03914
G1 X129.367 Y121.785 E-0.05249
;WIPE_END
G1 E-0.04000 F2100.000
G1 Z0.800 F10800.000
G1 X130.362 Y125.801
G1 Z0.200
G1 E0.80000 F2100.000
;TYPE:Perimeter
G1 F1200.000
G1 X130.060 Y126.052 E0.01232
G1 X129.650 Y126.302 E0.01506
G1 X129.208 Y126.490 E0.01506
G1 X128.744 Y126.612 E0.01506
G1 X128.266 Y126.664 E0.01506
G1 X127.786 Y126.647 E0.01506
G1 X127.314 Y126.559 E0.01506
G1 X126.860 Y126.404 E0.01506
G1 X126.433 Y126.185 E0.01506
G1 X126.042 Y125.905 E0.01506
G1 X125.696 Y125.572 E0.01506
G1 X125.419 Y125.213 E0.01423
G1 X125.169 Y124.776 E0.01579
G1 X124.996 Y124.325 E0.01513
G1 X124.898 Y123.882 E0.01423
G1 X124.857 Y123.380 E0.01579
G1 X124.892 Y122.898 E0.01513
G1 X124.996 Y122.430 E0.01506
G1 X125.159 Y122.005 E0.01423
G1 X125.402 Y121.564 E0.01579
G1 X125.696 Y121.182 E0.01513
G1 X126.042 Y120.849 E0.01506
G1 X126.411 Y120.585 E0.01423
G1 X126.857 Y120.351 E0.01579
G1 X127.314 Y120.195 E0.01513
G1 X127.786 Y120.108 E0.01506
G1 X128.240 Y120.091 E0.01423
G1 X128.741 Y120.142 E0.01579
G1 X129.208 Y120.264 E0.01513
G1 X129.650 Y120.452 E0.01506
G1 X130.060 Y120.702 E0.01506
G1 X130.429 Y121.009 E0.01506
G1 X130.750 Y121.367 E0.01506
G1 X131.015 Y121.767 E0.01506
G1 X131.218 Y122.202 E0.01506
G1 X131.357 Y122.662 E0.01506
G1 X131.427 Y123.137 E0.01506
G1 X131.427 Y123.617 E0.01506
G1 X131.357 Y124.092 E0.01506
G1 X131.218 Y124.552 E0.01506
G1 X131.015 Y124.987 E0.01506
G1 X130.750 Y125.387 E0.01506
G1 X130.408 Y125.763 E0.01591
G1 X130.167 Y125.473 F10800.000
;TYPE:External perimeter
G1 F1200.000
G1 X129.840 Y125.745 E0.01333
G1 X129.477 Y125.966 E0.01333
G1 X129.086 Y126.132 E0.01333
G1 X128.675 Y126.240 E0.01333
G1 X128.253 Y126.286 E0.01333
G1 X127.828 Y126.271 E0.01333
G1 X127.410 Y126.194 E0.01333
G1 X127.008 Y126.056 E0.01333
G1 X126.630 Y125.862 E0.01333
G1 X126.284 Y125.615 E0.01333
G1 X125.978 Y125.320 E0.01333
G1 X125.733 Y125.003 E0.01255
G1 X125.511 Y124.614 E0.01406
G1 X125.359 Y124.216 E0.01335
G1 X125.271 Y123.825 E0.01255
G1 X125.235 Y123.378 E0.01406
G1 X125.266 Y122.953 E0.01335
G1 X125.359 Y122.538 E0.01333
G1 X125.502 Y122.165 E0.01255
G1 X125.718 Y121.772 E0.01406
G1 X125.978 Y121.435 E0.01335
G1 X126.284 Y121.140 E0.01333
G1 X126.610 Y120.907 E0.01255
G1 X127.007 Y120.698 E0.01406
G1 X127.410 Y120.561 E0.01335
G1 X127.828 Y120.484 E0.01333
G1 X128.228 Y120.469 E0.01255
